X:0919
T:O'er the Dyke.
M:C
L:1/8
Q:1/2=120
I: :: ||
Z:Jack Campin * www.campin.me.uk * 2009
K:G
 G2B2   g2e2 | ff`(ed) e2 g2 | G2B2    g2e2  | f2  A2  A2f2 |
 G2B2   g2e2 |(gf)(ed) g2 d2 |(efg).e (Bcd).B|(ed)(cB) A2A2||
 G2B2   B2cd | ed``cB  AB`cA | G2B2    B2cd  | ed``cB  g2d2 |
(efg)e (Bcd)g| ed``cB  A2(BA)| G2B2    B2cd  | ed``ef  g4  |]
<end>
<start>
